assets/images/ios-mask.svg

<svg 
  xmlns="http://www.w3.org/2000/svg" width="512" height="512" viewBox="0 0 512 512">
  <path fill="#000" d="M512,160.162134 C512,154.043734 512,147.933866 511.965866,141.815466 C511.931734,136.669866 511.872,131.515734 511.735466,126.370134 C511.4368,115.1488 510.7712,103.8336 508.782934,92.7402665 C506.760534,81.4762665 503.458134,70.9973335 498.244266,60.7658665 C493.124266,50.7050666 486.442666,41.5146666 478.464,33.536 C470.485334,25.5658666 461.294934,18.8757334 451.234134,13.7557334 C441.0112,8.5504 430.532266,5.248 419.2768,3.2256 C408.174934,1.2288 396.859734,0.571733335 385.6384,0.264533334 C380.484266,0.128 375.338666,0.0682666665 370.184534,0.0341333334 C364.074666,0 357.956266,0 351.837866,0 L160.162134,0 C154.052266,0 147.933866,0 141.824,0.0341333334 C136.669866,0.0682666665 131.515734,0.128 126.370134,0.264533334 C115.1488,0.571733335 103.825066,1.2288 92.7317335,3.2256 C81.4762665,5.248 70.9973335,8.5504 60.7744,13.7557334 C50.7136,18.8757334 41.5146666,25.5658666 33.5445334,33.536 C25.5658666,41.5146666 18.8842666,50.7050666 13.7642666,60.7658665 C8.5504,70.9973335 5.248,81.4762665 3.2256,92.7402665 C1.23733334,103.8336 0.571733335,115.1488 0.273066666,126.370134 C0.136533334,131.515734 0.0682666665,136.669866 0.0426666666,141.815466 C0,147.933866 0,154.043734 0,160.162134 L0,351.837866 C0,357.956266 0,364.066134 0.0426666666,370.184534 C0.0682666665,375.330134 0.136533334,380.484266 0.273066666,385.629866 C0.571733335,396.8512 1.23733334,408.1664 3.2256,419.259734 C5.248,430.523734 8.5504,441.0112 13.7642666,451.242666 C18.8842666,461.294934 25.5658666,470.485334 33.5445334,478.455466 C41.5146666,486.442666 50.7136,493.124266 60.7744,498.244266 C70.9973335,503.4496 81.4762665,506.752 92.7317335,508.7744 C103.825066,510.762666 115.1488,511.4368 126.370134,511.735466 C131.515734,511.872 136.669866,511.931734 141.824,511.965866 C147.933866,512 154.052266,512 160.162134,512 L351.837866,512 C357.956266,512 364.074666,512 370.184534,511.965866 C375.338666,511.931734 380.484266,511.872 385.6384,511.735466 C396.859734,511.4368 408.174934,510.762666 419.2768,508.7744 C430.532266,506.752 441.0112,503.4496 451.234134,498.244266 C461.294934,493.124266 470.485334,486.442666 478.464,478.455466 C486.442666,470.485334 493.124266,461.294934 498.244266,451.242666 C503.458134,441.0112 506.760534,430.523734 508.782934,419.259734 C510.7712,408.1664 511.4368,396.8512 511.735466,385.629866 C511.872,380.484266 511.931734,375.330134 511.965866,370.184534 C512,364.066134 512,357.956266 512,351.837866 L512,160.162134 Z"/>
</svg>

<svg xmlns="http://www.w3.org/2000/svg" width="512" height="512"><path d="M512 160.162c0-6.118 0-12.228-.034-18.347a776.82 776.82 0 00-.23-15.445c-.3-11.221-.965-22.536-2.953-33.63-2.022-11.264-5.325-21.743-10.539-31.974a107.427 107.427 0 00-19.78-27.23 107.634 107.634 0 00-27.23-19.78c-10.223-5.206-20.702-8.508-31.957-10.53C408.175 1.229 396.86.572 385.638.265c-5.154-.137-10.3-.197-15.453-.23C364.075 0 357.956 0 351.838 0H160.162c-6.11 0-12.228 0-18.338.034-5.154.034-10.308.094-15.454.23-11.221.308-22.545.965-33.638 2.962-11.256 2.022-21.735 5.324-31.958 10.53a107.483 107.483 0 00-27.23 19.78 107.427 107.427 0 00-19.78 27.23C8.55 70.997 5.248 81.476 3.226 92.74 1.237 103.834.572 115.15.273 126.37c-.136 5.146-.205 10.3-.23 15.445C0 147.934 0 154.044 0 160.162v191.676c0 6.118 0 12.228.043 18.347.025 5.145.094 10.3.23 15.445.299 11.221.964 22.536 2.953 33.63 2.022 11.264 5.324 21.751 10.538 31.983a107.339 107.339 0 0019.78 27.212 107.102 107.102 0 0027.23 19.79c10.223 5.205 20.702 8.507 31.958 10.53 11.093 1.988 22.417 2.662 33.638 2.96 5.146.137 10.3.197 15.454.23 6.11.035 12.228.035 18.338.035h191.676c6.118 0 12.237 0 18.347-.034 5.154-.034 10.3-.094 15.453-.23 11.222-.3 22.537-.973 33.639-2.962 11.255-2.022 21.734-5.324 31.957-10.53a107.252 107.252 0 0027.23-19.789 107.339 107.339 0 0019.78-27.212c5.214-10.232 8.517-20.72 10.539-31.983 1.988-11.094 2.654-22.409 2.952-33.63.137-5.146.197-10.3.23-15.445.035-6.119.035-12.229.035-18.347V160.162z"/></svg>
